( Use case: ? )
( Text import by GRBL-Plotter 1.7.0.2 )
(<Header >)
( G-Code lines: 294 )
( Pen Down/Up : 10 times )
( Duration ca.: 0.3 min. )
( Conv. time  : 00:00:00.0011479 )
( Used font:'Microsoft Sans Serif'. Size:12)
( Graphic offset: 0.00 0.00 new origin: 0.00 0.00)
( Original graphic dimension min:0.000;0.004  max:31.815;8.739)
(</Header >)
G54 (Setup - GCode-Header)
G90
G00 Z2.000
M3 S1000 (job start)
(<Group Id="1" Type="Text" ToolNr="1" ToolName="" PathLength="190.6" PathArea="277.9">)
(<Figure Id="1" Geometry="Path 'd'" PenColor="Black" Type="Text" PathLength="13.2"> )
G00 X-27.486 Y1.930
G01 Z-7.000 F1000
G01 X-27.486 Y4.886 F2000
G01 X-27.856 Y5.216
G01 X-28.251 Y5.451
G01 X-28.671 Y5.596
G01 X-29.116 Y5.641
G01 X-29.456 Y5.601
G01 X-29.756 Y5.486
G01 X-30.021 Y5.296
G01 X-30.251 Y5.031
G01 X-30.436 Y4.686
G01 X-30.571 Y4.265
G01 X-30.651 Y3.770
G01 X-30.676 Y3.205
G01 X-30.651 Y2.665
G01 X-30.576 Y2.195
G01 X-30.451 Y1.790
G01 X-30.276 Y1.460
G01 X-30.056 Y1.200
G01 X-29.796 Y1.015
G01 X-29.501 Y0.900
G01 X-29.166 Y0.865
G01 X-28.936 Y0.880
G01 X-28.711 Y0.930
G01 X-28.496 Y1.015
G01 X-28.281 Y1.130
G01 X-28.076 Y1.280
G01 X-27.871 Y1.465
G01 X-27.676 Y1.680
G01 X-27.486 Y1.930
G00 Z2.000
(</Figure>)
(<Figure Id="2" Geometry="Path 'a'" PenColor="Black" Type="Text" PathLength="9.2"> )
G00 X-20.611 Y1.780
G01 Z-7.000 F1000
G01 X-20.611 Y3.155 F2000
G01 X-21.366 Y3.155
G01 X-21.931 Y3.135
G01 X-22.416 Y3.075
G01 X-22.831 Y2.970
G01 X-23.166 Y2.830
G01 X-23.431 Y2.645
G01 X-23.621 Y2.420
G01 X-23.731 Y2.155
G01 X-23.771 Y1.850
G01 X-23.751 Y1.625
G01 X-23.681 Y1.430
G01 X-23.571 Y1.260
G01 X-23.416 Y1.120
G01 X-23.226 Y1.010
G01 X-23.001 Y0.930
G01 X-22.751 Y0.880
G01 X-22.466 Y0.865
G01 X-22.196 Y0.880
G01 X-21.931 Y0.930
G01 X-21.411 Y1.110
G01 X-20.956 Y1.400
G01 X-20.611 Y1.780
G00 Z2.000
G00 X-20.611 Y0.785
G01 Z-7.000 F1000
G01 X-21.061 Y0.440 F2000
G01 X-21.576 Y0.195
G01 X-22.151 Y0.050
G01 X-22.786 Y0.000
G01 X-23.226 Y0.030
G01 X-23.626 Y0.125
G01 X-23.986 Y0.280
G01 X-24.306 Y0.500
G01 X-24.566 Y0.770
G01 X-24.756 Y1.075
G01 X-24.866 Y1.415
G01 X-24.906 Y1.790
G01 X-24.846 Y2.300
G01 X-24.671 Y2.745
G01 X-24.376 Y3.120
G01 X-23.966 Y3.425
G01 X-23.441 Y3.665
G01 X-22.796 Y3.835
G01 X-22.031 Y3.935
G01 X-21.151 Y3.970
G01 X-20.611 Y3.970
G01 X-20.616 Y4.280
G01 X-20.631 Y4.546
G01 X-20.651 Y4.766
G01 X-20.681 Y4.941
G01 X-20.731 Y5.086
G01 X-20.816 Y5.216
G01 X-20.926 Y5.336
G01 X-21.071 Y5.441
G01 X-21.256 Y5.531
G01 X-21.491 Y5.591
G01 X-21.771 Y5.631
G01 X-22.101 Y5.641
G01 X-22.446 Y5.626
G01 X-22.746 Y5.576
G01 X-23.006 Y5.491
G01 X-23.216 Y5.376
G01 X-23.386 Y5.231
G01 X-23.511 Y5.046
G01 X-23.586 Y4.836
G01 X-23.621 Y4.586
G01 X-24.726 Y4.586
G01 X-24.656 Y5.036
G01 X-24.511 Y5.426
G01 X-24.291 Y5.756
G01 X-23.991 Y6.026
G01 X-23.616 Y6.231
G01 X-23.166 Y6.381
G01 X-22.641 Y6.471
G01 X-22.041 Y6.501
G01 X-21.476 Y6.471
G01 X-20.976 Y6.386
G01 X-20.541 Y6.236
G01 X-20.176 Y6.031
G01 X-19.886 Y5.736
G01 X-19.676 Y5.326
G01 X-19.551 Y4.801
G01 X-19.511 Y4.165
G01 X-19.511 Y0.145
G01 X-20.611 Y0.145
G01 X-20.611 Y0.785
G00 Z2.000
(</Figure>)
(<Figure Id="3" Geometry="Path 'n'" PenColor="Black" Type="Text" PathLength="32.7"> )
G00 X-16.566 Y5.571
G01 Z-7.000 F1000
G01 X-16.141 Y5.976 F2000
G01 X-15.690 Y6.271
G01 X-15.210 Y6.441
G01 X-14.710 Y6.501
G01 X-14.215 Y6.466
G01 X-13.790 Y6.356
G01 X-13.425 Y6.181
G01 X-13.130 Y5.931
G01 X-12.900 Y5.606
G01 X-12.735 Y5.216
G01 X-12.640 Y4.750
G01 X-12.605 Y4.210
G01 X-12.605 Y0.145
G01 X-13.715 Y0.145
G01 X-13.715 Y4.165
G01 X-13.730 Y4.521
G01 X-13.780 Y4.821
G01 X-13.865 Y5.066
G01 X-13.985 Y5.261
G01 X-14.140 Y5.406
G01 X-14.345 Y5.511
G01 X-14.590 Y5.576
G01 X-14.880 Y5.596
G01 X-15.090 Y5.581
G01 X-15.300 Y5.531
G01 X-15.510 Y5.456
G01 X-15.720 Y5.346
G01 X-15.935 Y5.205
G01 X-16.145 Y5.036
G01 X-16.356 Y4.830
G01 X-16.566 Y4.601
G01 X-16.566 Y0.145
G01 X-17.676 Y0.145
G01 X-17.676 Y6.361
G01 X-16.566 Y6.361
G01 X-16.566 Y5.571
G00 Z2.000
(</Figure>)
(<Figure Id="4" Geometry="Path 'i'" PenColor="Black" Type="Text" PathLength="14.6"> )
G00 X-9.695 Y0.145
G01 Z-7.000 F1000
G01 X-10.800 Y0.145 F2000
G01 X-10.800 Y6.361
G01 X-9.695 Y6.361
G01 X-9.695 Y0.145
G00 Z2.000
G00 X-9.695 Y7.541
G01 Z-7.000 F1000
G01 X-10.800 Y7.541 F2000
G01 X-10.800 Y8.736
G01 X-9.695 Y8.736
G01 X-9.695 Y7.541
G00 Z2.000
(</Figure>)
(<Figure Id="5" Geometry="Path 'e'" PenColor="Black" Type="Text" PathLength="29.9"> )
G00 X-5.580 Y0.000
G01 Z-7.000 F1000
G01 X-4.930 Y0.055 F2000
G01 X-4.345 Y0.215
G01 X-3.825 Y0.480
G01 X-3.375 Y0.855
G01 X-3.010 Y1.330
G01 X-2.750 Y1.885
G01 X-2.595 Y2.525
G01 X-2.545 Y3.250
G01 X-2.595 Y3.970
G01 X-2.745 Y4.611
G01 X-3.000 Y5.165
G01 X-3.350 Y5.641
G01 X-3.785 Y6.016
G01 X-4.280 Y6.286
G01 X-4.835 Y6.446
G01 X-5.455 Y6.501
G01 X-6.090 Y6.446
G01 X-6.655 Y6.291
G01 X-7.150 Y6.026
G01 X-7.580 Y5.656
G01 X-7.930 Y5.186
G01 X-8.175 Y4.625
G01 X-8.325 Y3.980
G01 X-8.375 Y3.250
G01 X-8.375 Y2.985
G01 X-3.695 Y2.985
G01 X-3.760 Y2.485
G01 X-3.880 Y2.050
G01 X-4.055 Y1.680
G01 X-4.290 Y1.385
G01 X-4.570 Y1.160
G01 X-4.875 Y0.995
G01 X-5.215 Y0.900
G01 X-5.580 Y0.865
G01 X-5.860 Y0.885
G01 X-6.130 Y0.940
G01 X-6.385 Y1.030
G01 X-6.625 Y1.160
G01 X-6.830 Y1.325
G01 X-6.980 Y1.520
G01 X-7.075 Y1.745
G01 X-7.115 Y2.000
G01 X-8.260 Y2.000
G01 X-8.155 Y1.550
G01 X-7.975 Y1.150
G01 X-7.720 Y0.810
G01 X-7.390 Y0.520
G01 X-7.000 Y0.290
G01 X-6.565 Y0.130
G01 X-6.095 Y0.030
G01 X-5.580 Y0.000
G00 Z2.000
G00 X-7.210 Y3.855
G01 Z-7.000 F1000
G01 X-7.120 Y4.275 F2000
G01 X-6.990 Y4.641
G01 X-6.820 Y4.946
G01 X-6.605 Y5.196
G01 X-6.360 Y5.391
G01 X-6.085 Y5.531
G01 X-5.785 Y5.616
G01 X-5.455 Y5.641
G01 X-5.135 Y5.616
G01 X-4.840 Y5.531
G01 X-4.570 Y5.396
G01 X-4.320 Y5.201
G01 X-4.105 Y4.951
G01 X-3.935 Y4.641
G01 X-3.805 Y4.275
G01 X-3.715 Y3.855
G01 X-7.210 Y3.855
G00 Z2.000
(</Figure>)
(<Figure Id="6" Geometry="Path 'l'" PenColor="Black" Type="Text" PathLength="19.4"> )
G00 X0.000 Y0.145
G01 Z-7.000 F1000
G01 X-1.110 Y0.145 F2000
G01 X-1.110 Y8.736
G01 X0.000 Y8.736
G01 X0.000 Y0.145
G00 Z2.000
(</Figure>)
(<Figure Id="7" Geometry="Path 'd'" PenColor="Black" Type="Text" PathLength="27.6"> )
G00 X-27.486 Y0.890
G01 Z-7.000 F1000
G01 X-27.871 Y0.500 F2000
G01 X-28.296 Y0.220
G01 X-28.761 Y0.055
G01 X-29.261 Y0.000
G01 X-29.836 Y0.055
G01 X-30.341 Y0.215
G01 X-30.776 Y0.485
G01 X-31.146 Y0.865
G01 X-31.436 Y1.340
G01 X-31.646 Y1.885
G01 X-31.776 Y2.510
G01 X-31.816 Y3.205
G01 X-31.771 Y3.925
G01 X-31.626 Y4.571
G01 X-31.396 Y5.131
G01 X-31.066 Y5.616
G01 X-30.671 Y6.001
G01 X-30.226 Y6.281
G01 X-29.731 Y6.446
G01 X-29.191 Y6.501
G01 X-28.706 Y6.461
G01 X-28.261 Y6.346
G01 X-27.856 Y6.151
G01 X-27.486 Y5.881
G01 X-27.486 Y8.736
G01 X-26.381 Y8.736
G01 X-26.381 Y0.145
G01 X-27.486 Y0.145
G01 X-27.486 Y0.890
G00 Z2.000
(</Figure>)
(</Group>)
M05
M30
